X:1
T:Dodge, LM
T:Dodge, LM
T:Joseph Perry Holbrook, 1868
T:Public Domain Courtesy of the Cyber Hymnal™
C:Joseph Perry Holbrook, 1868
Z:Public Domain
Z:Courtesy of the Cyber Hymnal™
%%score ( 1 2 ) ( 3 4 )
L:1/8
Q:1/4=120
M:2/2
K:Eb
V:1 treble 
V:2 treble 
V:3 bass 
V:4 bass 
V:1
 [EG]4 | [EG]3 [EG] [EG]2 [GB]2 | [FA]4 [DF]4 | [EG]4 [EG]4 | [EB]3 [EB] [Ec]2 [Gd]2 | [Ge]4 =A4 | %6
 [DB]4 [EG]4 | [EG]3 [EG] [EG]2 [DF]2 | E4 [EA]4 | [EG]4 [EB]4 | [Ec]3 [Ec] [Ee]2 [Ac]2 | %11
 [GB]4 [FA]4 | !fermata![EG]4 |] %13
V:2
 x4 | x8 | x8 | x8 | x8 | x4 (F2 E2) | x8 | x8 | E4 x4 | x8 | x8 | x8 | x4 |] %13
V:3
 [E,B,]4 | [E,B,]3 [E,B,] [E,B,]2 [E,B,]2 | [A,,C]4 [B,,B,]4 | [E,B,]4 [E,B,]4 | %4
 [E,G,]3 [E,G,] [E,G,]2 [D,=B,]2 | [C,C]4 [F,C]4 | [B,,B,]4 [E,B,]4 | %7
 [E,B,]3 [E,B,] [E,B,]2 [E,A,]2 | [E,G,]4 [E,C]4 | [E,B,]4 [G,B,]4 | A,3 A, [A,C]2 [A,,E]2 | %11
 [B,,E]4 [B,,B,]4 | !fermata![E,B,]4 |] %13
V:4
 x4 | x8 | x8 | x8 | x8 | x8 | x8 | x8 | x8 | x8 | A,3 A, x4 | x8 | x4 |] %13

